assets/icons/24px/outline/credit-card-24px.svg

<svg fill="none" height="24" viewBox="0 0 24 24" width="24" xmlns="http://www.w3.org/2000/svg"><g stroke="#fff" stroke-linecap="round" stroke-linejoin="round" stroke-width="2"><path d="m3 9c0-1.88562 0-2.82843.58579-3.41421.58578-.58579 1.52859-.58579 3.41421-.58579h10c1.8856 0 2.8284 0 3.4142.58579.5858.58578.5858 1.52859.5858 3.41421v6c0 1.8856 0 2.8284-.5858 3.4142s-1.5286.5858-3.4142.5858h-10c-1.88562 0-2.82843 0-3.41421-.5858-.58579-.5858-.58579-1.5286-.58579-3.4142z"/><path d="m3 9.00003h18"/><path d="m7 15h6"/></g></svg>

<svg width="24" height="24" viewBox="0 0 24 24" fill="none" xmlns="http://www.w3.org/2000/svg">
<path d="M3 9C3 7.11438 3 6.17157 3.58579 5.58579C4.17157 5 5.11438 5 7 5H17C18.8856 5 19.8284 5 20.4142 5.58579C21 6.17157 21 7.11438 21 9V15C21 16.8856 21 17.8284 20.4142 18.4142C19.8284 19 18.8856 19 17 19H7C5.11438 19 4.17157 19 3.58579 18.4142C3 17.8284 3 16.8856 3 15V9Z" stroke="white" stroke-width="2" stroke-linecap="round" stroke-linejoin="round"/>
<line x1="3" y1="9.00003" x2="21" y2="9.00003" stroke="white" stroke-width="2" stroke-linecap="round" stroke-linejoin="round"/>
<path d="M7 15H13" stroke="white" stroke-width="2" stroke-linecap="round" stroke-linejoin="round"/>
</svg>
